X: 96
T: Swallowtail Jig
R: jig
M: 6/8
L: 1/8
K: EDor
E/F/| "Em"GEE BEE | GEE BAG | "D"FDD ADD | dcd AGF |
"Em"GEE BEE | GEE B2c | "D"dcd AGF | "Em"GEE E2 :|
|:B | "Em"Bcd e2f | e2f edB | Bcd e2f | edB "D"d2B |
 "Em"Bcd e2f | e2f edB | "D"dcd AGF | "Em"GEE E2 :|
